svgs/antennapod.svg

<svg viewBox="0 0 192 192" xml:space="preserve" style="fill-rule:evenodd;clip-rule:evenodd;stroke-linejoin:round;stroke-miterlimit:2" xmlns="http://www.w3.org/2000/svg"><path d="m509.419 96.179-25.345 71.824a6.003 6.003 0 0 0 3.662 7.655 6.002 6.002 0 0 0 7.654-3.661l7.642-21.655A69.041 69.041 0 0 0 520 152.449c5.854 0 11.539-.732 16.968-2.107l7.642 21.655a6.002 6.002 0 0 0 7.654 3.661 6.003 6.003 0 0 0 3.662-7.655l-25.345-71.824a15.93 15.93 0 0 0 5.387-11.955c0-8.813-7.155-15.968-15.968-15.968-8.813 0-15.968 7.155-15.968 15.968a15.93 15.93 0 0 0 5.387 11.955Zm23.536 42.789L520 102.255l-12.955 36.713A57.09 57.09 0 0 0 520 140.449a57.09 57.09 0 0 0 12.955-1.481Zm-49.303-10.058c-12.616-10.461-20.659-26.25-20.659-43.903C462.993 53.544 488.537 28 520 28c31.463 0 57.007 25.544 57.007 57.007 0 17.653-8.043 33.442-20.659 43.903a6.003 6.003 0 0 0-.789 8.448 6.003 6.003 0 0 0 8.449.789c15.269-12.661 24.999-31.774 24.999-53.14C589.007 46.921 558.086 16 520 16c-38.086 0-69.007 30.921-69.007 69.007 0 21.366 9.73 40.479 24.999 53.14a6.003 6.003 0 0 0 8.449-.789 6.003 6.003 0 0 0-.789-8.448Zm10.959-26.696c-3.428-4.96-5.45-10.727-5.45-17.207 0-17.02 13.819-30.839 30.839-30.839 17.02 0 30.839 13.819 30.839 30.839a30.67 30.67 0 0 1-5.282 17.254 6.003 6.003 0 0 0 1.604 8.333 6.003 6.003 0 0 0 8.332-1.604 42.64 42.64 0 0 0 7.346-23.983c0-23.643-19.196-42.839-42.839-42.839-23.643 0-42.839 19.196-42.839 42.839 0 9.047 2.793 17.106 7.579 24.03a6.003 6.003 0 0 0 8.347 1.524 6.003 6.003 0 0 0 1.524-8.347Z" style="fill-rule:evenodd;clip-rule:evenodd;stroke-linejoin:round;stroke-miterlimit:2" transform="translate(-424)"/></svg>

<?xml version="1.0" encoding="UTF-8" standalone="no"?>
<svg
   width="100%"
   height="100%"
   viewBox="0 0 192 192"
   version="1.1"
   xml:space="preserve"
   style="fill-rule:evenodd;clip-rule:evenodd;stroke-linejoin:round;stroke-miterlimit:2;"
   id="svg10"
   sodipodi:docname="antennapod.svg"
   inkscape:version="1.2.1 (9c6d41e410, 2022-07-14)"
   xmlns:inkscape="http://www.inkscape.org/namespaces/inkscape"
   xmlns:sodipodi="http://sodipodi.sourceforge.net/DTD/sodipodi-0.dtd"
   xmlns="http://www.w3.org/2000/svg"
   xmlns:svg="http://www.w3.org/2000/svg"><defs
   id="defs14" /><sodipodi:namedview
   id="namedview12"
   pagecolor="#ffffff"
   bordercolor="#000000"
   borderopacity="0.25"
   inkscape:showpageshadow="2"
   inkscape:pageopacity="0.0"
   inkscape:pagecheckerboard="0"
   inkscape:deskcolor="#d1d1d1"
   showgrid="false"
   inkscape:zoom="5.3489583"
   inkscape:cx="95.906524"
   inkscape:cy="95.906524"
   inkscape:window-width="2552"
   inkscape:window-height="1303"
   inkscape:window-x="4"
   inkscape:window-y="36"
   inkscape:window-maximized="0"
   inkscape:current-layer="svg10" />
    <path
   d="M509.419,96.179L484.074,168.003C482.972,171.126 484.613,174.556 487.736,175.658C490.859,176.76 494.289,175.119 495.39,171.997L503.032,150.342C508.462,151.717 514.146,152.449 520,152.449C525.854,152.449 531.539,151.717 536.968,150.342L544.61,171.997C545.711,175.119 549.141,176.76 552.264,175.658C555.387,174.556 557.028,171.126 555.926,168.003L530.581,96.179C533.885,93.252 535.968,88.98 535.968,84.224C535.968,75.411 528.813,68.256 520,68.256C511.187,68.256 504.032,75.411 504.032,84.224C504.032,88.98 506.115,93.252 509.419,96.179ZM532.955,138.968L520,102.255L507.045,138.968C511.208,139.937 515.545,140.449 520,140.449C524.455,140.449 528.792,139.937 532.955,138.968ZM483.652,128.91C471.036,118.449 462.993,102.66 462.993,85.007C462.993,53.544 488.537,28 520,28C551.463,28 577.007,53.544 577.007,85.007C577.007,102.66 568.964,118.449 556.348,128.91C553.799,131.023 553.446,134.809 555.559,137.358C557.673,139.907 561.459,140.261 564.008,138.147C579.277,125.486 589.007,106.373 589.007,85.007C589.007,46.921 558.086,16 520,16C481.914,16 450.993,46.921 450.993,85.007C450.993,106.373 460.723,125.486 475.992,138.147C478.541,140.261 482.327,139.907 484.441,137.358C486.554,134.809 486.201,131.023 483.652,128.91ZM494.611,102.214C491.183,97.254 489.161,91.487 489.161,85.007C489.161,67.987 502.98,54.168 520,54.168C537.02,54.168 550.839,67.987 550.839,85.007C550.839,91.397 548.892,97.336 545.557,102.261C543.7,105.003 544.419,108.737 547.161,110.594C549.903,112.45 553.636,111.732 555.493,108.99C560.128,102.144 562.839,93.889 562.839,85.007C562.839,61.364 543.643,42.168 520,42.168C496.357,42.168 477.161,61.364 477.161,85.007C477.161,94.054 479.954,102.113 484.74,109.037C486.623,111.761 490.363,112.444 493.087,110.561C495.811,108.678 496.494,104.938 494.611,102.214Z"
   id="path4"
   style="fill-rule:evenodd;clip-rule:evenodd;stroke-linejoin:round;stroke-miterlimit:2"
   transform="translate(-424)"
   inkscape:label="antennapod" />
</svg>
